src/assets/svg/icons/fa/nuevos/classic/light/microphone classic light.svg

<svg xmlns="http://www.w3.org/2000/svg" viewBox="0 0 384 512"><!--! Font Awesome Pro 6.4.0 by @fontawesome - https://fontawesome.com License - https://fontawesome.com/license (Commercial License) Copyright 2023 Fonticons, Inc. --><path d="M256 96V256c0 35.3-28.7 64-64 64s-64-28.7-64-64V96c0-35.3 28.7-64 64-64s64 28.7 64 64zM96 96V256c0 53 43 96 96 96s96-43 96-96V96c0-53-43-96-96-96S96 43 96 96zM64 208c0-8.8-7.2-16-16-16s-16 7.2-16 16v48c0 83 63.1 151.2 144 159.2V480H112c-8.8 0-16 7.2-16 16s7.2 16 16 16h80 80c8.8 0 16-7.2 16-16s-7.2-16-16-16H208V415.2c80.9-8 144-76.2 144-159.2V208c0-8.8-7.2-16-16-16s-16 7.2-16 16v48c0 70.7-57.3 128-128 128s-128-57.3-128-128V208z"/></svg>

<svg xmlns="http://www.w3.org/2000/svg" viewBox="0 0 384 512"><path d="M336 192C327.2 192 320 199.2 320 208V256c0 73.5-62.25 132.6-136.8 127.8C115.3 379.1 64 319.6 64 251.5V208C64 199.2 56.8 192 48 192S32 199.2 32 208v42.38c0 83.38 61.63 156.1 144 164.4V480h-64C103.2 480 96 487.2 96 496C96 504.8 103.2 512 112 512h160c8.801 0 16-7.201 16-16c0-8.801-7.199-16-16-16h-64v-65C288.8 406.9 352 338.8 352 256V208C352 199.2 344.8 192 336 192zM192 352c53 0 96-43 96-96v-160c0-52.1-43-96-96-96s-96 43-96 96v160C96 309 139 352 192 352zM128 96c0-35.25 28.75-64 64-64s64 28.75 64 64v160c0 35.25-28.75 64-64 64S128 291.3 128 256V96z"/></svg>
